assets/svg/contact.svg

<?xml version="1.0" encoding="UTF-8"?>
<svg width="1000px" height="1000px" viewBox="0 0 1000 1000" version="1.1" xmlns="http://www.w3.org/2000/svg" xmlns:xlink="http://www.w3.org/1999/xlink">
    <!-- Generator: sketchtool 52.4 (67378) - http://www.bohemiancoding.com/sketch -->
    <title>contact</title>
    <desc>Created with sketchtool.</desc>
    <g id="新版图标" stroke="none" stroke-width="1" fill="none" fill-rule="evenodd">
        <g id="contact" fill="#323233" fill-rule="nonzero">
            <g id="圆角-联系人">
                <path d="M500,583.333333 C720.530541,583.333333 888.888889,666.720477 888.888889,806.155693 C888.888889,866.24973 840.044545,911.951303 767.454655,911.951303 L232.545345,911.951303 C159.521236,911.951303 111.111111,867.195231 111.111111,806.155693 C111.111111,668.483256 281.376292,583.333333 500,583.333333 Z M500,638.888889 C308.121483,638.888889 166.666667,709.630697 166.666667,806.155693 C166.666667,835.496519 189.272186,856.395748 232.545345,856.395748 L767.454655,856.395748 C810.157437,856.395748 833.333333,834.711047 833.333333,806.155693 C833.333333,708.020804 693.756242,638.888889 500,638.888889 Z" id="Combined-Shape"></path>
                <path d="M500,444.444444 C592.047458,444.444444 666.666667,369.825236 666.666667,277.777778 C666.666667,185.730319 592.047458,111.111111 500,111.111111 C407.952542,111.111111 333.333333,185.730319 333.333333,277.777778 C333.333333,369.825236 407.952542,444.444444 500,444.444444 Z M500,500 C377.270056,500 277.777778,400.507722 277.777778,277.777778 C277.777778,155.047833 377.270056,55.5555556 500,55.5555556 C622.729944,55.5555556 722.222222,155.047833 722.222222,277.777778 C722.222222,400.507722 622.729944,500 500,500 Z" id="Oval-18"></path>
            </g>
        </g>
    </g>
</svg>

<svg width="1000" height="1000" xmlns="http://www.w3.org/2000/svg"><g fill="#323233" fill-rule="nonzero"><path d="M500 583.333c220.53 0 388.889 83.387 388.889 222.823 0 60.094-48.844 105.795-121.434 105.795h-534.91c-73.024 0-121.434-44.756-121.434-105.795 0-137.673 170.265-222.823 388.889-222.823zm0 55.556c-191.879 0-333.333 70.742-333.333 167.267 0 29.34 22.605 50.24 65.878 50.24h534.91c42.702 0 65.878-21.685 65.878-50.24 0-98.135-139.577-167.267-333.333-167.267zM500 444.444c92.047 0 166.667-74.619 166.667-166.666 0-92.048-74.62-166.667-166.667-166.667s-166.667 74.62-166.667 166.667S407.953 444.444 500 444.444zM500 500c-122.73 0-222.222-99.492-222.222-222.222S377.27 55.556 500 55.556s222.222 99.492 222.222 222.222S622.73 500 500 500z"/></g></svg>
